X: 41319
T: Turbo Shandy
R: reel
M: 4/4
K: Amixolydian
|:Aeed eAcd|eaaf gedg|Aeed eAcd|1 egdB BAGB:|2 egdB BAAf||
|:ge ~e2 a2 af|ge ~e2 fddf|ge ~e2 a2 cd|1 egdB BAAf:|2 egdB BAGB||

